X:882
T:Big Kilmarnock Bunnet #2
C:Joe Buchanan's Scottish Tome - Page 439.2
I:439 2
Z:Carl Allison
R:Two-step
L:1/8
M:6/8
K:G
Bc | d2 d e2 d | d2 B G2 B | d2 c E2 F | G3 G2 E |
G2 G G2 G | G2 G B2 c | d2 d c2 B | A3 ABc |
d2 d e2 d | d2 B G2 B | d2 c E2 F | G2 F E2 D |
G2 G G2 B | d2 e d2 B | A6 | A6 :|
